X:1
T:Title
%%score { ( 1 3 ) | ( 2 4 ) }
L:1/8
M:4/4
K:C
V:1 treble nm="Grand Piano"
V:3 treble 
V:2 bass 
V:4 bass 
V:1
 z4 z2[Q:1/4=100] [G,EG]>[G,EG] | [G,EG]2 [G,CE]>[G,DF] [G,EG][Ec][Ge][Fd] | [Ec]6 [Ec]>[Ec] | %3
 [FB]3 [FA] [EG]2 [DF]2 |[M:3/4] [CE]6 |[M:1/4] [EG]>[EG] |[M:4/4] A2 ^G>A [FB][FB][FA][FB] | %7
 [Ec]2 [Ge]4 [Ge]>[Ge] | [Gd]3 [GB] [DG]2 [DA]2 |[M:3/4] [B,DG]6 |[M:1/4] [CG]>[CE] | %11
[M:4/4] [EA]2 [EG][CE] [EA][EG][CE][Ec] | [FB]6[K:bass][K:treble] z2 | %13
 [FB]2 B,-[B,G] [FB]AB,-[B,f] | [Ge]6[K:bass][K:treble] z2 | [^Ge][GB][Gc][Gd] [Ec]2 [Ec]>[Ec] | %16
 [^Fc][DF][FB][FA] [DG]2 [EG][E^G] | %17
 [FA]2 [^FA]>[FB] [B,Ge][B,=Fd][B,FG][B,Fd][Q:1/4=99][Q:1/4=97][Q:1/4=96][Q:1/4=94][Q:1/4=93][Q:1/4=91][Q:1/4=90][Q:1/4=88][Q:1/4=87][Q:1/4=85] | %18
[M:9/8] [Ec]8- [Ec][Q:1/4=84][Q:1/4=82][Q:1/4=81][Q:1/4=79][Q:1/4=78][Q:1/4=76] |] %19
V:2
 z4 z2 C,>C, | C,2 C,>C, C,[C,G,][G,B,][G,B,] | [C,G,]6 [C,G,]>[C,C] | %3
 [G,D]3 [G,D] [G,,G,]2 [G,,G,]2 |[M:3/4] [C,G,]6 |[M:1/4] [C,C]>[C,C] | %6
[M:4/4] [F,CF]2 [F,CF]>[F,CF] [D,D][D,D][G,D][G,D] | [C,C]6 [C,C]>[C,C] | %8
 [D,B,]3 [D,D] [D,B,]2 [D,C]2 |[M:3/4] [G,,G,]6 |[M:1/4] [C,E,]>[C,G,] | %11
[M:4/4] [C,G,]2 [G,,G,]2 [C,G,]2 [G,,G,]2 | G,6 z2 | [G,,D,]2 z[K:treble] F z F[K:bass] z G | %14
 G,6 [C,C]>[C,C] | [E,B,][E,D][E,C][E,B,] [A,,A,]2 [A,,A,]>[A,,A,] | %16
 [D,A,][D,A,][D,D][D,C] [G,B,]2 [C,C][C,C] | [F,C]2 [D,D]>[D,D] [G,,G,][G,,G,][G,,G,][G,,G,] | %18
[M:9/8] [C,G,]8- [C,G,] |] %19
V:3
 x8 | x8 | x8 | x8 |[M:3/4] x6 |[M:1/4] x2 |[M:4/4] x8 | x8 | x8 |[M:3/4] x6 |[M:1/4] x2 | %11
[M:4/4] x8 | z2[K:bass] G,,2 D,2[K:treble] [FA]>[FG] | z2 .[FA]2 z2 .[FG]2 | %14
 z2[K:bass] G,,2 C,2[K:treble] [Ge]>[Ge] | x8 | x8 | x8 |[M:9/8] x9 |] %19
V:4
 x8 | x8 | x8 | x8 |[M:3/4] x6 |[M:1/4] x2 |[M:4/4] x8 | x8 | x8 |[M:3/4] x6 |[M:1/4] x2 | %11
[M:4/4] x8 | D,2 z2 z2 [G,,G,]>[G,,G,] | z2 G,,2[K:treble] [D,D]2[K:bass] G,,2 | C,2 z2 z4 | x8 | %16
 x8 | x8 |[M:9/8] x9 |] %19

